app/dist/common/images/jason-furniture-hangzhou-coltd.svg

<svg height="18" viewBox="0 0 18 18" width="18" xmlns="http://www.w3.org/2000/svg"><path d="m0 0h18v18h-18z" fill="#e60012"/><path d="m8 4h-2v10h2v-3.33l3.33 3.33 1.67-1.67-3.33-3.33 3.33-3.33-1.67-1.67-3.33 3.33zm0 3.33 1.67 1.67-1.67 1.67-1.5-1.67z" fill="#fff"/></svg>

<!-- by TradingView --><svg width="18" height="18" viewBox="0 0 18 18" xmlns="http://www.w3.org/2000/svg"><path fill="#E60012" d="M0 0h18v18H0z"/><path d="M8 4H6v10h2v-3.33L11.33 14 13 12.33 9.67 9 13 5.67 11.33 4 8 7.33V4Zm0 3.33L9.67 9 8 10.67 6.5 9 8 7.33Z" fill="#fff"/></svg>
